X: 189
T: Mu ge
L: 1/8
M: 2/4
K: D
F2A2- [I:setbarnb 1]| 
A3A | 
A/ B/ cB2- | 
B3c | 
F2A2- | 
A3B | 
A/ B/A3- | 
A4 | 
A2D2- | 
D3E | 
FE3- | 
E FE2 | 
B,2D2- | 
D D E/ D/ E/ F/ | 
D4 |]

@@@ Tune index: 8857
